images/icons/Iconwallet.svg

<svg width="49" height="44" viewBox="0 0 49 44" fill="none" xmlns="http://www.w3.org/2000/svg">
<path fill-rule="evenodd" clip-rule="evenodd" d="M48.5254 17.4283L48.5319 26.4855C48.4681 27.3483 48.3859 28.2102 48.2853 29.0704C48.1171 30.5089 46.9477 31.6693 45.4792 31.8334C40.8798 32.3474 36.1203 32.3474 31.5209 31.8334C30.0524 31.6693 28.883 30.5089 28.7147 29.0704C28.1653 24.3729 28.1653 19.6273 28.7147 14.9298C28.883 13.4913 30.0524 12.3309 31.5209 12.1668C36.1203 11.6527 40.8798 11.6527 45.4792 12.1668C46.9477 12.3309 48.1171 13.4913 48.2853 14.9298C48.3826 15.7613 48.4626 16.5943 48.5254 17.4283ZM38.5 18.2501C36.429 18.2501 34.75 19.929 34.75 22.0001C34.75 24.0712 36.429 25.7501 38.5 25.7501C40.5711 25.7501 42.25 24.0712 42.25 22.0001C42.25 19.929 40.5711 18.2501 38.5 18.2501Z" fill="#299764"/>
<path d="M47.009 7.09939C47.3977 7.77254 46.6682 8.52633 45.8957 8.43999C41.0195 7.895 35.9805 7.895 31.1043 8.43999C27.931 8.79466 25.3645 11.2935 24.9901 14.4942C24.4069 19.4811 24.4069 24.5191 24.9901 29.506C25.3645 32.7067 27.931 35.2055 31.1043 35.5602C35.9806 36.1052 41.0195 36.1052 45.8957 35.5602C46.6733 35.4733 47.4088 36.2323 47.0164 36.9092C45.0699 40.2663 41.5996 42.6093 37.5671 43.0336L35.9374 43.2051C27.6603 44.0761 19.3117 44.0187 11.0473 43.0339L9.96743 42.9052C5.51212 42.3743 1.982 38.8934 1.38857 34.446C0.286331 26.1853 0.286331 17.8149 1.38857 9.55422C1.982 5.1068 5.51212 1.62592 9.96743 1.095L11.0473 0.966326C19.3117 -0.0184886 27.6603 -0.0759263 35.9374 0.795084L37.5671 0.966574C41.603 1.39128 45.0678 3.73781 47.009 7.09939Z" fill="#299764"/>
</svg>

<svg width="49" height="44" fill="none" xmlns="http://www.w3.org/2000/svg"><path fill-rule="evenodd" clip-rule="evenodd" d="m48.525 17.428.007 9.057a60.947 60.947 0 0 1-.247 2.585c-.168 1.439-1.337 2.6-2.806 2.763-4.6.514-9.359.514-13.958 0-1.469-.164-2.638-1.324-2.806-2.763a60.865 60.865 0 0 1 0-14.14c.168-1.439 1.337-2.6 2.806-2.763 4.6-.514 9.359-.514 13.958 0 1.469.164 2.638 1.324 2.806 2.763.098.831.178 1.664.24 2.498ZM38.5 18.25a3.75 3.75 0 1 0 0 7.5 3.75 3.75 0 0 0 0-7.5Z" fill="#299764"/><path d="M47.009 7.1c.389.673-.34 1.426-1.113 1.34a67.112 67.112 0 0 0-14.792 0c-3.173.355-5.74 2.854-6.114 6.054a64.62 64.62 0 0 0 0 15.012c.375 3.2 2.941 5.7 6.114 6.054 4.877.545 9.916.545 14.792 0 .777-.087 1.513.672 1.12 1.35a12.428 12.428 0 0 1-9.449 6.124l-1.63.171c-8.277.871-16.625.814-24.89-.171l-1.08-.129a9.828 9.828 0 0 1-8.578-8.459 94.102 94.102 0 0 1 0-24.892 9.828 9.828 0 0 1 8.578-8.459l1.08-.129a111.625 111.625 0 0 1 24.89-.17l1.63.17c4.036.425 7.5 2.772 9.442 6.133Z" fill="#299764"/></svg>
